resources/dark/rocket.svg

<svg fill="none" height="16" viewBox="0 0 16 16" width="16" xmlns="http://www.w3.org/2000/svg"><path d="m13.8401 2.44775c-.0305-.143-.143-.25552-.286-.286-.7548-.16175-1.3456-.16175-1.934-.16175-2.41921 0-3.87028 1.29401-4.95332 3.00061h-2.44268c-.42665 0-.81579.24145-1.00567.62122l-1.15805 2.31609c-.18754.37508.08439.81345.50401.81345h2.22936c-.13831.30006-.27896.59778-.42196.88377-.07267.14535-.04454.31882.07032.43366l1.49093 1.491c.11487.1148.28834.143.43368.0703.286-.143.58372-.2813.88378-.4196v2.2293c0 .4173.44071.6892.81344.504l2.31376-1.158c.3821-.1899.6212-.5814.6212-1.0057v-2.44736c1.7019-1.08538 3.0006-2.54114 3.0006-4.94866.0024-.59075.0024-1.18149-.1594-1.93633zm-2.4638 3.30301c-.6212 0-1.1252-.50401-1.1252-1.12523s.504-1.12523 1.1252-1.12523c.6213 0 1.1253.50401 1.1253 1.12523s-.504 1.12523-1.1253 1.12523z" fill="#2196f3"/></svg>

<svg width="16" height="16" viewBox="0 0 16 16" fill="none" xmlns="http://www.w3.org/2000/svg">
<path d="M13.8401 2.44775C13.8096 2.30475 13.6971 2.19223 13.5541 2.16175C12.7993 2 12.2085 2 11.6201 2C9.20089 2 7.74982 3.29401 6.66678 5.00061H4.2241C3.79745 5.00061 3.40831 5.24206 3.21843 5.62183L2.06038 7.93792C1.87284 8.313 2.14477 8.75137 2.56439 8.75137H4.79375C4.65544 9.05143 4.51479 9.34915 4.37179 9.63514C4.29912 9.78049 4.32725 9.95396 4.44211 10.0688L5.93304 11.5598C6.04791 11.6746 6.22138 11.7028 6.36672 11.6301C6.65272 11.4871 6.95044 11.3488 7.2505 11.2105V13.4398C7.2505 13.8571 7.69121 14.129 8.06394 13.9438L10.3777 12.7858C10.7598 12.5959 10.9989 12.2044 10.9989 11.7801V9.33274C12.7008 8.24736 13.9995 6.7916 13.9995 4.38408C14.0019 3.79333 14.0019 3.20259 13.8401 2.44775V2.44775ZM11.3763 5.75076C10.7551 5.75076 10.2511 5.24675 10.2511 4.62553C10.2511 4.00431 10.7551 3.5003 11.3763 3.5003C11.9976 3.5003 12.5016 4.00431 12.5016 4.62553C12.5016 5.24675 11.9976 5.75076 11.3763 5.75076Z" fill="#2196F3"/>
</svg>
